flags/language/yi.svg

<svg width="512" height="512" viewBox="0 0 512 512" fill="none" xmlns="http://www.w3.org/2000/svg">
<rect width="512" height="512" fill="var(--flag-palette-white, #eeeeee)"/>
<path fill-rule="evenodd" clip-rule="evenodd" d="M239 172H273L266 187V228.859C285.178 224.402 299.544 207.405 299.989 186.977L293 172H327L320 187H319.992C319.51 218.496 296.276 244.473 266 249.223V269.411C307.359 264.505 339.504 229.55 339.994 186.988L333 172H367L360 187H359.995C359.49 240.611 318.421 284.524 266 289.525V319L315 330V344H197V330L246 319V289.525C193.579 284.524 152.51 240.611 152.005 187H152L145 172H179L172.006 186.988C172.496 229.55 204.641 264.505 246 269.411V249.223C215.724 244.473 192.49 218.496 192.008 187H192L185 172H219L212.011 186.977C212.456 207.405 226.822 224.402 246 228.859V187L239 172ZM0 56V122H512V56H0ZM0 390V456H512V390H0Z" fill="var(--flag-palette-black, #333333)"/>
</svg>

<svg xmlns="http://www.w3.org/2000/svg" width="512" height="512" fill="none"><g clip-path="url(#a)"><path fill="#EEE" d="M0 0h512v512H0z"/><path fill="#333" fill-rule="evenodd" d="M239 172h34l-7 15v41.9a44 44 0 0 0 34-42l-7-14.9h34l-7 15a64 64 0 0 1-54 62.2v20.2a84 84 0 0 0 74-82.4l-7-15h34l-7 15a104 104 0 0 1-94 102.5V319l49 11v14H197v-14l49-11v-29.5A104 104 0 0 1 152 187l-7-15h34l-7 15a84 84 0 0 0 74 82.4v-20.2a64 64 0 0 1-54-62.2l-7-15h34l-7 15a44 44 0 0 0 34 41.9V187zM0 56v66h512V56zm0 334v66h512v-66z" clip-rule="evenodd"/></g><defs><clipPath id="a"><path fill="#fff" d="M0 0h512v512H0z"/></clipPath></defs></svg>
